!!!COM: Elgar Arr. Emily Winterburg
!!!OTL: Nimrod
**kern	**dynam	**kern	**dynam	**kern	**dynam	**kern	**dynam
*part4	*part4	*part3	*part3	*part2	*part2	*part1	*part1
*staff4	*	*staff3	*	*staff2	*	*staff1	*
*I"Violoncello	*	*I"Viola	*	*I"Violin	*	*I"Violin	*
*I'Vlc.	*	*I'Vla.	*	*I'Vln.	*	*I'Vln.	*
*clefF4	*	*clefC3	*	*clefG2	*	*clefG2	*
*k[b-e-a-]	*	*k[b-e-a-]	*	*k[b-e-a-]	*	*k[b-e-a-]	*
*M3/4	*	*M3/4	*	*M3/4	*	*M3/4	*
=1	=1	=1	=1	=1	=1	=1	=1
2.r	.	2.r	.	2.r	.	2r	.
!	!	!	!	!	!	!LO:TX:a:t=sul D	!
!	!	!	!	!	!	!LO:TX:a:t=Adagio	!
.	.	.	.	.	.	[4g;	ppp
=2	=2	=2	=2	=2	=2	=2	=2
*MM40	*	*MM40	*	*MM40	*	*MM40	*
!	!	!	!	!	!	!LO:TX:a:t=[quarter]=40	!
(4BB-	ppp	(4G	ppp	(4B-	ppp	(8gL]	.
.	.	.	.	.	.	8e-J)	.
4C)	.	4E-)	.	4e-)	.	(4a-	.
4C	.	4A-	.	4A-	.	4f	.
=3	=3	=3	=3	=3	=3	=3	=3
4GG	.	4F	.	4e-	.	4b-	.
4BB-	.	4B-	.	4B-	.	4f)	.
[4BB-	.	(8A-L	.	4d	.	(8fL	.
.	.	8FJ)	.	.	.	8a-J	.
=4	=4	=4	=4	=4	=4	=4	=4
4BB-]	.	2G	<	(4e-	.	8gL	.
.	.	.	.	.	.	8b-J	.
2C	.	.	.	4g	.	4ee-	.
.	.	4An	p [[	4f)	.	4f)	.
=5	=5	=5	=5	=5	=5	=5	=5
(4BB-	.	(4F	>	(4f	.	((4dd	.
4G)	.	4G)	.	4e-	.	4e-))	.
!	!	!LO:TX:a:t=cresc.	!	!	!	!LO:TX:b:i:t=cresc.	!
(8A-L	.	(8A-L	.	8fL	.	(8fL	.
!	!	!	!	!LO:TX:b:i:t=cresc.	!	!	!
8BB-J)	.	8FJ)	]]	8dJ	.	8a-J)	.
=6	=6	=6	=6	=6	=6	=6	=6
4E-	<	4G	<	4e-)	<	(8gL	<
.	.	.	.	.	.	8b-J)	.
!	!	!	!	!	!	!LO:TX:a:t=sul A	!
2E-	p [[	(4B-	mf	(4b-	.	(4gg	.
.	.	4c)	<[	4an)	[[	4an)	[[
=7	=7	=7	=7	=7	=7	=7	=7
2D	.	(4An	[ >	2f	.	(4ff	.
.	.	4Bn)	.	.	.	4g)	.
!	!	!	!	!	!	!LO:TX:b:i:t=dim	!
!LO:TX:b:i:t=dim	!	!LO:TX:b:i:t=dim	!	!LO:TX:b:i:t=dim	!	!LO:TX:a:t=sul D	!
[4C	.	(8cL	.	[4e-	.	(8anL	.
.	.	8B-XJ)	]]	.	.	8ccJ)	.
!!linebreak:original
=8	=8	=8	=8	=8	=8	=8	=8
2C]	.	(8AnL	.	4e-]	.	(8ee-L	.
.	.	8GJ	.	.	.	8ccJ	.
.	.	4.F	.	[2e-	.	4.an	.
4C	pp	.	.	.	.	.	.
.	.	8G)	.	.	.	8b-)	.
=9	=9	=9	=9	=9	=9	=9	=9
2FF	>	(8GL	pp	2e-]	pp	(8b-L	pp
.	.	8B-J	>	.	.	8gJ	>
.	.	4A-	.	.	.	4.f	.
4BB-	]]	8B-L	.	4d	>]	.	.
.	.	8FJ)	]]	.	.	8a-)	]]
=10	=10	=10	=10	=10	=10	=10	=10
(4BB-	.	(4E- 4G	.	(4B-	.	(8gL	.
.	.	.	.	.	.	8e-J	.
2C)	.	2E-) 2A-	.	4e-	.	4a-	.
.	.	.	.	4A-)	.	4f)	.
=11	=11	=11	=11	=11	=11	=11	=11
(4GG	.	(4B-	.	(4e-	.	(4b-	.
4BB-)	.	4F)	.	4B-)	.	4f)	.
[4BB-	.	(8A-L	.	(4d	.	(8fL	.
.	.	8FJ)	.	.	.	8a-J)	.
=12	=12	=12	=12	=12	=12	=12	=12
4BB-]	.	4G	.	8e-)	.	(8gL	<
.	.	.	.	8r	.	8b-J)	.
(4CC	.	(4G	<	(4g	<	(4ee-	.
4C)	.	4An)	[[	4f)	[[	4f)	[[
=13	=13	=13	=13	=13	=13	=13	=13
!	!	!	!	!	!	!LO:TX:b:i:t=cresc.	!
2BB-	.	(4F	.	(4f	.	(4dd	.
.	.	4G)	.	4e-)	.	4e-)	.
!LO:TX:b:i:t=cresc.	!	!LO:TX:b:i:t=cresc.	!	!LO:TX:b:i:t=cresc.	!	!	!
4BB-	.	(8A-L	.	(8e-L	.	(8fL	.
.	.	8FJ)	.	8dJ)	.	8a-J)	.
=14	=14	=14	=14	=14	=14	=14	=14
4E-	.	(8GL	.	4B-	.	(8gL	.
.	.	8B-J)	.	.	.	8b-J)	.
2E-	.	(4B-	<	2g	.	4gg	.
.	.	4c)	[[	.	.	4a-	.
!!pagebreak:original
=15	=15	=15	=15	=15	=15	=15	=15
2D	.	(4A-	.	2f	.	4ff	.
.	.	4B-)	.	.	.	4g	.
4C	<[	4A-	<[	4e-	<[	(8a-L	<
.	.	.	.	.	.	8ccJ)	[[
=16	=16	=16	=16	=16	=16	=16	=16
4BB-	.	4F 4d	.	(8dL	.	(8ddL	.
.	.	.	.	8fJ)	.	8ffJ)	.
4AA-	mf	(4f	mf	4cc	mf	4ccc	mf
4A-	.	4d)	.	4d	.	4dd	.
=17	=17	=17	=17	=17	=17	=17	=17
4G	.	2e-	.	4b-	.	4bb-	.
4G-X	.	.	.	4c	.	4cc	.
4F	.	(8.B-L	f <	(8dL	.	(8ddL	.
.	.	.	.	8fJ)	.	8ffJ)	.
.	.	16a-Jk)	[[	.	.	.	.
=18	=18	=18	=18	=18	=18	=18	=18
(4E-	.	8a-	.	(8a-L	.	(8aa-L	.
.	.	(4a-^^	.	8cJ)	.	8ccJ)	.
4D)	.	.	.	4B-	.	4b-	.
.	.	8B-)	.	.	.	.	.
4E-	.	(8.B-L	.	(8cL	.	(8ccL	.
.	.	.	.	8e-J)	.	8ee-J)	.
.	.	16gJk)	.	.	.	.	.
=19	=19	=19	=19	=19	=19	=19	=19
!	!	!	!	!LO:TX:a:i:t=dim.	!	!LO:TX:a:i:t=dim.	!
4D	.	8g	.	(8gL	.	(8ggL	.
.	.	4g^^	.	8B-J)	.	8b-J)	.
4C	.	.	.	4A-	.	4a-	.
.	.	8A-	.	.	.	.	.
!	!	!LO:TX:a:i:t=dim.	!	!	!	!	!
4D	.	(8.A-L	.	(8B-L	.	(8b-L	.
.	.	.	.	8dJ)	.	8ddJ)	.
.	.	16fJk)	.	.	.	.	.
=20	=20	=20	=20	=20	=20	=20	=20
(4C	.	8f	p	(8fL	p	(8ffL	p
.	.	8r	.	8A-J)	.	8a-J)	.
2BB-)	.	(4B-	.	4d	>	(4.g	>
.	.	4A-)	.	4c	]]	.	.
.	.	.	.	.	.	8f)	]]
*clefC4	*	*	*	*	*	*	*
=21	=21	=21	=21	=21	=21	=21	=21
(2b-	pp	(4G	pp	4B-	pp	[2b-	pp <
.	.	4g	<	2r	.	.	.
8a-L	<	8fL	.	.	.	8b-L]	.
8gJ)	[[	8e-J)	[[	.	.	8ccJ	[[
!!linebreak:original
=22	=22	=22	=22	=22	=22	=22	=22
(8fL	.	(8dL	.	4r	.	(2cc	>
8A-J)	.	8FJ)	.	.	.	.	.
!	!	!	!	!LO:TX:a:t=pizz	!	!	!
(4d	>	(4B-	>	4d	.	.	.
8cL	.	4A-	]]	4c	.	4dd)	]]
8B-J)	]]	.	.	.	.	.	.
=23	=23	=23	=23	=23	=23	=23	=23
(4B-	.	4G)	.	2.r	.	[2b-	<
4g	<	(4B-	<	.	.	.	.
8fL	.	8A-L	.	.	.	8b-L]	.
8e-J)	[[	8GJ)	[[	.	.	8ccJ	[[
=24	=24	=24	=24	=24	=24	=24	=24
(8dL	.	(8FL	.	2.r	.	(2ff	>
8A-J)	.	8CJ)	.	.	.	.	.
(4c	>	(4E-	>	.	.	.	.
8B-L	.	8DL	.	.	.	4b-)	]]
8A-J)	]]	8CJ)	]]	.	.	.	.
*clefF4	*	*	*	*	*	*	*
=25	=25	=25	=25	=25	=25	=25	=25
!LO:TX:b:i:t=cresc. molto	!	!	!	!LO:TX:a:t=arco	!	!	!
(4G	.	(4G	p	(2B-	p <	(4B-	p
4B-	.	4B-)	<	.	.	4b-	<
8A-L	.	4c	[[	4e-)	[[	4cc)	[[
8GJ)	.	.	.	.	.	.	.
=26	=26	=26	=26	=26	=26	=26	=26
!	!	!LO:TX:b:i:t=cresc.	!	!LO:TX:b:i:t=cresc.	!	!LO:TX:b:i:t=cresc.	!
(8FL	.	8e- 8a-	.	4.e-	.	(4.ee-	.
8CJ)	.	4e- 4a-	.	.	.	.	.
2E-	.	.	.	.	.	.	.
.	.	4f 4a-	.	8d	.	8dd	.
.	.	.	.	4c	.	4cc)	.
.	.	[8f [8a-	.	.	.	.	.
=27	=27	=27	=27	=27	=27	=27	=27
2D	.	8f] 8a-]	.	4B-	.	4b-	.
.	.	4f 4a-	<	.	.	.	.
.	.	.	.	(4.c	<	(4.cc	<
.	.	4f 4a-	.	.	.	.	.
(8CL	.	.	.	.	.	.	.
8BB-J)	.	8f 8a-	[[	8d)	[[	8dd)	[[
=28	=28	=28	=28	=28	=28	=28	=28
8AA-~L	sf	8cc	mf	8cc 8ff	mf	(4.ccc	mf <
8EE-~J	<	4cc	<	4cc 4ff	<	.	.
4DD	.	.	.	.	.	.	.
.	.	8b-	.	8b- 8ff	.	8bb-)	.
4BB-	[[	4a-	[[	4dd	[[	4aa-	[[
!!linebreak:original
=29	=29	=29	=29	=29	=29	=29	=29
!	!	!	!	!	!	!LO:TX:a:i:t=legatissimo	!
4EE- 4BB-	f	(8gL	f	8gL	f	8ggL	f
.	.	8b-J)	.	8e-J	.	8ee-J	.
2CC 2AA-	.	8a-	.	4a-	.	4aa-	.
.	.	4e-	.	.	.	.	.
.	.	.	.	4f	.	4ff	.
.	.	(8a-	.	.	.	.	.
=30	=30	=30	=30	=30	=30	=30	=30
4GG	.	8b-L)	.	4b-	.	4bb-	.
.	.	[8b-J	.	.	.	.	.
4BB-	.	8b-L]	.	4f	.	4ff	.
.	.	8b-J	.	.	.	.	.
4B-	.	(8fL	<	8a-L	.	8ffL	<
.	.	8a-J)	[[	8a-J	.	8aa-J	[[
=31	=31	=31	=31	=31	=31	=31	=31
!	!	!	!	!	!	!LO:TX:b:i:t=sempre	!
4E-	.	8gL	.	8gL	.	8ggL	.
.	.	8b-J	.	8b-J	.	8bb-J	.
(4G	.	4ee-	.	4ee-	.	4eee-	.
4An)	.	4f	.	4f	.	4ff	f
=32	=32	=32	=32	=32	=32	=32	=32
(4F	.	4dd	.	4dd	.	4ddd	.
4G)	.	4e-	.	4e-	.	4ee-	.
(8FL	.	(8fL	.	(8fL	.	(8ffL	.
8A-J)	.	8a-J)	.	8a-J)	.	8a-J)	.
=33	=33	=33	=33	=33	=33	=33	=33
4E-	.	(8gL	.	(8gL	.	(8gL	.
.	.	8b-J)	.	8b-J)	.	8e-J)	.
2E-	.	4gg	sf	4gg	.	8b-	.
.	.	.	.	.	.	4a-	.
.	.	4a-	.	4a-	.	.	.
.	.	.	.	.	.	[8a-	.
=34	=34	=34	=34	=34	=34	=34	=34
2D	.	4ff	.	4ff	.	8a-]	.
.	.	.	.	.	.	4g	.
.	.	4g	.	4g	.	.	.
.	.	.	.	.	.	8g	<
4C	<[	4f	<[	(8A-L	<	(8a-L	.
.	.	.	.	8cJ)	[[	8ccJ)	[[
=35	=35	=35	=35	=35	=35	=35	=35
4BB-	sf	8d~L	sf	8d~L	sf	8dd~L	sf
.	.	8f~J	.	8f~J	.	8ff~J	.
4AA-	.	4cc~	.	4cc~	.	4ccc~	.
4A-	.	4d~	.	4d~	.	4dd~	.
!!pagebreak:original
=36	=36	=36	=36	=36	=36	=36	=36
4G	.	4b-	.	4b-	.	4bb-	.
4G-X	.	4c	.	4cc	.	4cc	.
4F	.	4r	.	(8ddL	.	(8ddL	.
.	.	.	.	8ffJ)	.	8ffJ)	.
=37	=37	=37	=37	=37	=37	=37	=37
4E-	.	(4e-	>	(8aa-^L	.	(8aa-^L	.
.	.	.	.	8ccJ)	.	8ccJ)	.
4D	.	4f)	.	4b-	.	4b-	.
4F	.	4d	]]	(8ddL	.	(8ddL	.
.	.	.	.	8ffJ)	.	8ffJ)	.
=38	=38	=38	=38	=38	=38	=38	=38
!	!	!	!	!LO:TX:b:i:t=cresc.	!	!LO:TX:b:i:t=cresc.	!
4E-	>	(4e-	>	(8aa-^L	.	(8aa-^L	.
.	.	.	.	8ccJ)	.	8ccJ)	.
4D	.	4f)	.	4b-	.	4b-	.
4F	]]	(8dL	.	(8ddL	.	8ddL	.
.	.	8fJ)	]]	8ffJ)	.	8ffJ	.
=39	=39	=39	=39	=39	=39	=39	=39
4E-	fz	12a-L	fz	12aa-L	fz	12aa-L	fz
.	.	(12.e-	.	(12.ee-	.	(12.ee-	.
.	.	24c-XJk)	.	24cc-XJk)	.	24cc-XJk)	.
4D	.	(4B-	.	(4b-	.	4.b-	.
4C	.	4E-)	.	4e-)	.	.	.
.	.	.	.	.	.	8b-~	.
=40	=40	=40	=40	=40	=40	=40	=40
!LO:TX:b:i:t=cresc.	!	!LO:TX:b:i:t=cresc.	!	!LO:TX:b:i:t=cresc.	!	!LO:TX:b:i:t=cresc.	!
2.BB-	.	4D	.	4d	.	2.b-	.
.	.	4E- 4A-	.	4a-	.	.	.
.	.	4F	.	4f	.	.	.
=41	=41	=41	=41	=41	=41	=41	=41
4EE-	ff	8GL 8e- 8b-	ff	8GL 8e- 8ee-	ff	8b-L 8gg	ff
.	.	8gJ	<	8e-J 8b-	<	8ee-J	<
!LO:TX:b:i:t=dim.	!	!	!	!LO:TX:b:i:t=dim.	!	!LO:TX:a:t=Rit	!
2CC^^	<[	(4a-^^	.	[2ee-^^	[[	4aa-^^	.
!	!	!LO:TX:b:i:t=dim.	!	!	!	!LO:TX:b:i:t=dim	!
.	.	4f)	[[	.	.	4ff	[[
=42	=42	=42	=42	=42	=42	=42	=42
4GG	.	[2.b-	pp	2ee-]	pp	4bb-	.
(4BB-	.	.	.	.	.	(4.ff	pp
4C)	.	.	.	4dd	.	.	.
.	.	.	.	.	.	8aa-)	.
=43	=43	=43	=43	=43	=43	=43	=43
[2.EE-;	>]	2.b-;_	>]	[2.ee-;	>]	[2.gg;	>]
!!linebreak:original
=44	=44	=44	=44	=44	=44	=44	=44
4EE-]	.	4b-]	.	4ee-]	.	4gg]	.
2r;	.	2r;	.	2r;	.	2r;	.
==	==	==	==	==	==	==	==
*-	*-	*-	*-	*-	*-	*-	*-
!!!system-decoration: s1,s2,s3,s4
!!!YEM: 2018
